X:1
T:Title
%%score { ( 1 3 ) | ( 2 4 5 ) }
L:1/8
M:2/4
K:Db
V:1 treble nm="Grand Piano"
V:3 treble 
V:2 bass 
V:4 bass 
V:5 bass 
V:1
 z2 z[Q:1/4=90] [DF] | [FA][FA] [FB][DF] | [FA] [FA]2 [FB] | F2 z z/ E/ | F3 F | %5
 [FA][FA] [FB][DF] | [FA] [FA]2 [Fd] | [Ec]2 [DB]2 | [CA]3 B/c/ | [Fd][Fd] [Ac][GB] | [FA] F2 F | %11
 z2 A2 | B3 B | dd cB | A d2 d | [=Gd]2 [_Gc]2 |[M:3/8] [Fd]3 |[M:1/8] D |[M:2/4] FF E>D | %19
 F [FA]2 [FA] | [Fd][Fe] [Gd]>[GB] | z2 A2 | Bd [CAc][DGB] | [DFA] [A,DF]2[K:bass] [F,D] | %24
 [F,DF][F,DF] [=G,CE][G,B,D] | [CE]2 [CA]2 | FF ED |[M:3/8] F [FA]2 |[M:1/8] [FA] | %29
[M:2/4] [Fd][Fd] [Fe][Fd] | d B2 B | dd cB | d A2 B | F2 [CE]2 |[M:3/8] D3 |] %35
V:2
 z2 z [D,A,] | [D,D][D,D] [D,D][D,A,] | [D,D] [D,D]2 [D,D] | [D,A,D]2 F,>G, | [D,A,D]3 [D,A,D] | %5
 [D,D][D,D] [D,D][D,A,] | [D,D] [D,D]2 [D,A,] | [E,A,]2 [E,=G,]2 | [A,,A,]3 [A,,A,] | %9
 [D,A,][D,A,] [D,B,][D,C] | [D,D] [D,A,D]2 [D,A,D] | [E,A,C]2 .[F,A,D]2 | [G,DG]3 [G,DG] | %13
 [=G,B,_F][G,B,F] [G,CF][G,DF] | [A,DF] [A,F]2 [A,F] | [E,B,]2 [A,,A,]2 |[M:3/8] [D,A,]3 | %17
[M:1/8] [D,F,] |[M:2/4] [D,A,D][D,A,D] [D,G,C]>[D,F,] | [D,A,D] [D,D]2 [D,D] | %20
 [D,A,][D,A,] [G,B,]>[G,D] | z2 F2 | [G,DG][G,B,G] G,G, | D, D,2 D, | B,,B,, E,E, | %25
 [A,,A,]2 [A,,A,]2 | [D,A,D][D,A,D] [D,G,C][D,F,] |[M:3/8] [D,A,D] [D,D]2 |[M:1/8] [D,D] | %29
[M:2/4] [D,_C][D,C] [D,C][D,C] | [G,B,G] [G,DG]2 [G,DG] | [G,B,G][G,B,G] [G,CG][G,DG] | %32
 [A,DF] [A,DF]2[K:bass] [G,DG] | [A,D]2 [A,,G,]2 |[M:3/8] [D,F,]3 |] %35
V:3
 x4 | x4 | x4 | z2 D2 | x4 | x4 | x4 | x4 | z2 z G | x4 | x4 | G2 z D | x4 | x4 | x4 | x4 | %16
[M:3/8] x3 |[M:1/8] x |[M:2/4] x4 | x4 | x4 | [GB][FA] z D | x4 | x3[K:bass] x | x4 | x4 | x4 | %27
[M:3/8] x3 |[M:1/8] x |[M:2/4] x4 | x4 | x4 | x4 | x4 |[M:3/8] x3 |] %35
V:4
 x4 | x4 | x4 | z2 D,2 | x4 | x4 | x4 | x4 | x4 | x4 | x4 | x4 | x4 | x4 | x4 | x4 |[M:3/8] x3 | %17
[M:1/8] x |[M:2/4] x4 | x4 | x4 | z .[D,D]3 | x4 | x4 | x4 | x4 | x4 |[M:3/8] x3 |[M:1/8] x | %29
[M:2/4] x4 | x4 | x4 | x3[K:bass] x | x4 |[M:3/8] x3 |] %35
V:5
 x4 | x4 | x4 | x4 | x4 | x4 | x4 | x4 | x4 | x4 | x4 | x4 | x4 | x4 | x4 | x4 |[M:3/8] x3 | %17
[M:1/8] x |[M:2/4] x4 | x4 | x4 | .[D,D]2 z D, | x4 | x4 | x4 | x4 | x4 |[M:3/8] x3 |[M:1/8] x | %29
[M:2/4] x4 | x4 | x4 | x3[K:bass] x | x4 |[M:3/8] x3 |] %35

